X:1
T:Title
%%score { ( 1 3 ) | 2 }
L:1/8
M:4/4
K:F
V:1 treble nm="Grand Piano"
V:3 treble 
V:2 bass 
V:1
 z4 z2[Q:1/4=110] [A,F]2 | [CFA]2 [CFA]2 [CEG]2 z C | G2 G2 F2 z F | [DG]2 [DA]2 GF D2 | %4
[M:7/8] C-C-C- C3 z |[M:1/8] F |[M:4/4] A2 A2 c2 z c | =B2 _B2 A2 z A | %8
 [B,EG]2 [DEB]2 [CEA]2 [B,EG]2 | [A,F]6 z2 | [B,DF]2 z2[K:bass] [F,CE]3 [F,B,D] | [A,C]6 [A,CF]2 | %12
 [CFA]2 [CFA]2 [DFB] [CFA]3 | G2- [=B,DG-]2 [CEG]2 [Ec]2 | c2 A>c d d2 d | c2 A>c [Fd]2 z [DGB] | %16
 [CFA]2 z2 [CEA]3 [B,EG] |[M:3/4] [A,F]6 |] %18
V:2
 z4 z2 F,2 | F,2 F,2 C,2 z C, | [C,B,C]2 [C,B,C]2 [F,A,C]2 z [F,A,C] | %3
 [B,,B,]2 [B,,B,]2 [B,,B,]2 [D,F,B,]2 |[M:7/8] [F,A,]2 [C,E,]2 [F,,F,]2 z |[M:1/8] [F,A,C] | %6
[M:4/4] [F,CF]2 [F,CF]2 [F,_EF]2 z [F,EF] | [F,DF]2 [F,^CF]2 [F,=CF]2 z [F,CF] | C,2 C,2 C,2 C,2 | %9
 F,6 z2 | B,,2 z2 B,,3 D, | F,2 F,2 F,2 F,2 | F,2 F,2 F, F,3 | C,2 G,,2 C,2 [C,B,]2 | %14
 [F,A,F]2 [F,CF]>[F,A,F] [B,F] [B,F]2 [B,F] | [F,A,F]2 [F,CF]>[F,A,F] [B,,B,]2 z B,, | %16
 C,2 z2 C,3 C, |[M:3/4] F,6 |] %18
V:3
 x8 | x8 | x8 | z4 D2 z2 |[M:7/8] z2 G,2 A,2 z |[M:1/8] x |[M:4/4] x8 | x8 | x8 | x8 | %10
 x4[K:bass] x4 | x8 | x8 | [CE]2 z2 z4 | x8 | x8 | x8 |[M:3/4] x6 |] %18

